src/assets/instagram.svg

<svg width="14" height="14" viewBox="0 0 14 14" fill="none" xmlns="http://www.w3.org/2000/svg">
<path fill-rule="evenodd" clip-rule="evenodd" d="M7.0007 0.599976C5.26255 0.599976 5.04441 0.607576 4.36174 0.638643C3.6804 0.669843 3.21533 0.777711 2.80839 0.935979C2.38745 1.09945 2.03038 1.31812 1.67464 1.67399C1.31864 2.02972 1.09997 2.38679 0.935968 2.8076C0.7773 3.21467 0.669298 3.67987 0.638631 4.36095C0.608098 5.04362 0.600098 5.26189 0.600098 7.00004C0.600098 8.73819 0.607831 8.95566 0.638765 9.63834C0.670098 10.3197 0.777966 10.7847 0.936101 11.1917C1.0997 11.6126 1.31837 11.9697 1.67424 12.3254C2.02985 12.6814 2.38692 12.9006 2.80759 13.0641C3.21479 13.2224 3.68 13.3302 4.3612 13.3614C5.04388 13.3925 5.26188 13.4001 6.9999 13.4001C8.73818 13.4001 8.95565 13.3925 9.63833 13.3614C10.3197 13.3302 10.7853 13.2224 11.1925 13.0641C11.6133 12.9006 11.9698 12.6814 12.3254 12.3254C12.6814 11.9697 12.9001 11.6126 13.0641 11.1918C13.2214 10.7847 13.3294 10.3195 13.3614 9.63847C13.3921 8.9558 13.4001 8.73819 13.4001 7.00004C13.4001 5.26189 13.3921 5.04375 13.3614 4.36108C13.3294 3.67974 13.2214 3.21467 13.0641 2.80773C12.9001 2.38679 12.6814 2.02972 12.3254 1.67399C11.9694 1.31798 11.6134 1.09931 11.1921 0.935979C10.7841 0.777711 10.3187 0.669843 9.63739 0.638643C8.95472 0.607576 8.73738 0.599976 6.9987 0.599976H7.0007ZM6.42653 1.7533C6.59693 1.75304 6.78707 1.7533 7.00067 1.7533C8.70949 1.7533 8.91202 1.75944 9.58683 1.7901C10.2108 1.81864 10.5495 1.9229 10.7751 2.01051C11.0738 2.12651 11.2867 2.26517 11.5106 2.48918C11.7346 2.71318 11.8733 2.92652 11.9895 3.22518C12.0771 3.45052 12.1815 3.78919 12.2099 4.4132C12.2406 5.08787 12.2473 5.29054 12.2473 6.99856C12.2473 8.70658 12.2406 8.90924 12.2099 9.58392C12.1814 10.2079 12.0771 10.5466 11.9895 10.7719C11.8735 11.0706 11.7346 11.2833 11.5106 11.5071C11.2866 11.7311 11.0739 11.8698 10.7751 11.9858C10.5498 12.0738 10.2108 12.1778 9.58683 12.2063C8.91216 12.237 8.70949 12.2437 7.00067 12.2437C5.29172 12.2437 5.08918 12.237 4.41451 12.2063C3.7905 12.1775 3.45183 12.0733 3.2261 11.9857C2.92743 11.8697 2.71409 11.731 2.49009 11.507C2.26609 11.283 2.12742 11.0702 2.01115 10.7714C1.92355 10.5461 1.81915 10.2074 1.79075 9.58339C1.76008 8.90871 1.75395 8.70604 1.75395 6.99696C1.75395 5.28787 1.76008 5.08627 1.79075 4.4116C1.81928 3.78759 1.92355 3.44892 2.01115 3.22332C2.12715 2.92465 2.26609 2.71131 2.49009 2.48731C2.71409 2.26331 2.92743 2.12464 3.2261 2.00837C3.4517 1.92037 3.7905 1.81637 4.41451 1.7877C5.00492 1.76104 5.23372 1.75304 6.42653 1.7517V1.7533ZM10.417 2.81598C9.99297 2.81598 9.64897 3.15959 9.64897 3.58372C9.64897 4.00773 9.99297 4.35173 10.417 4.35173C10.841 4.35173 11.185 4.00773 11.185 3.58372C11.185 3.15972 10.841 2.81598 10.417 2.81598ZM7.00071 3.71332C5.18562 3.71332 3.71401 5.18494 3.71401 7.00002C3.71401 8.81511 5.18562 10.2861 7.00071 10.2861C8.81579 10.2861 10.2869 8.81511 10.2869 7.00002C10.2869 5.18494 8.81579 3.71332 7.00071 3.71332ZM7.00068 4.86667C8.17883 4.86667 9.13404 5.82175 9.13404 7.00002C9.13404 8.17817 8.17883 9.13338 7.00068 9.13338C5.8224 9.13338 4.86733 8.17817 4.86733 7.00002C4.86733 5.82175 5.8224 4.86667 7.00068 4.86667Z" fill="white"/>
</svg>

<svg xmlns="http://www.w3.org/2000/svg" width="14" height="14" fill="none"><path fill="#fff" fill-rule="evenodd" d="M7 .6C5.264.6 5.045.608 4.363.639c-.682.03-1.147.139-1.554.297-.42.163-.778.382-1.133.738a3.142 3.142 0 0 0-.739 1.134C.777 3.215.669 3.68.639 4.36.609 5.044.6 5.261.6 7c0 1.738.008 1.956.039 2.638.031.682.139 1.147.297 1.554.164.42.382.778.738 1.133.356.356.713.576 1.134.74.407.157.872.265 1.553.296.683.031.9.04 2.639.04 1.738 0 1.956-.008 2.638-.04.682-.03 1.147-.139 1.555-.297.42-.163.777-.383 1.132-.739.356-.355.575-.712.74-1.133.156-.407.264-.873.296-1.554.031-.682.04-.9.04-2.638s-.009-1.956-.04-2.639c-.032-.681-.14-1.146-.297-1.553a3.141 3.141 0 0 0-.739-1.134 3.128 3.128 0 0 0-1.133-.738C10.784.778 10.32.67 9.637.639 8.955.608 8.737.6 7 .6H7Zm-.573 1.153H7c1.708 0 1.911.006 2.586.037.624.029.963.133 1.188.22.299.117.512.255.736.48.224.223.362.437.479.735.087.226.191.564.22 1.188.03.675.037.878.037 2.586 0 1.708-.006 1.91-.037 2.585-.029.624-.133.963-.22 1.188a1.978 1.978 0 0 1-.48.735 1.98 1.98 0 0 1-.735.479c-.225.088-.564.192-1.188.22-.675.031-.878.038-2.586.038-1.71 0-1.912-.007-2.586-.038-.624-.028-.963-.133-1.189-.22a1.982 1.982 0 0 1-.736-.479 1.984 1.984 0 0 1-.479-.736c-.087-.225-.192-.564-.22-1.188-.03-.674-.037-.877-.037-2.586 0-1.71.006-1.91.037-2.585.028-.624.133-.963.22-1.189.116-.298.255-.512.48-.736.223-.224.436-.362.735-.479.226-.088.565-.192 1.189-.22.59-.027.819-.035 2.012-.036v.001Zm3.99 1.063a.768.768 0 1 0 0 1.536.768.768 0 0 0 0-1.536Zm-3.416.897a3.287 3.287 0 1 0 0 6.574 3.287 3.287 0 0 0 0-6.574Zm0 1.154a2.133 2.133 0 1 1 0 4.266 2.133 2.133 0 0 1 0-4.266Z" clip-rule="evenodd"/></svg>
